Newaita/actions/scalable/meeting-attending-tentative.svg

<?xml version="1.0" encoding="UTF-8"?>
<svg xmlns="http://www.w3.org/2000/svg" xmlns:xlink="http://www.w3.org/1999/xlink" width="512pt" height="512pt" viewBox="0 0 512 512" version="1.1">
<g id="surface1">
<path style=" stroke:none;fill-rule:nonzero;fill:rgb(36.078432%,41.960785%,75.294119%);fill-opacity:1;" d="M 359.867188 215.6875 C 318.820312 215.6875 285.777344 248.730469 285.777344 289.777344 C 285.777344 330.824219 318.820312 363.867188 359.867188 363.867188 C 400.914062 363.867188 433.957031 330.824219 433.957031 289.777344 C 433.957031 248.730469 400.914062 215.6875 359.867188 215.6875 Z M 359.867188 247.441406 C 383.324219 247.441406 402.203125 266.324219 402.203125 289.777344 C 402.203125 313.230469 383.324219 332.113281 359.867188 332.113281 C 336.414062 332.113281 317.53125 313.230469 317.53125 289.777344 C 317.53125 266.324219 336.414062 247.441406 359.867188 247.441406 Z M 359.867188 247.441406 "/>
<path style=" stroke:none;fill-rule:nonzero;fill:rgb(25.882354%,25.882354%,25.882354%);fill-opacity:1;" d="M 305.363281 361.226562 C 262.421875 374.484375 232.855469 402.957031 232.855469 436.105469 L 232.855469 437.957031 L 233.757812 437.957031 C 233.175781 439.613281 232.855469 441.390625 232.855469 443.25 L 232.855469 475.003906 C 232.855469 475.492188 232.878906 475.972656 232.921875 476.445312 C 232.878906 476.84375 232.855469 477.242188 232.855469 477.648438 C 232.855469 484.980469 239.9375 490.878906 248.730469 490.878906 L 471.003906 490.878906 C 479.800781 490.878906 486.878906 484.980469 486.878906 477.648438 C 486.878906 477.242188 486.855469 476.84375 486.8125 476.445312 C 486.855469 475.972656 486.878906 475.492188 486.878906 475.003906 L 486.878906 443.25 C 486.878906 441.390625 486.558594 439.613281 485.980469 437.957031 L 486.878906 437.957031 L 486.878906 436.105469 C 486.878906 402.957031 457.3125 374.484375 414.371094 361.226562 C 400.851562 375.882812 381.46875 385.035156 359.867188 385.035156 C 338.265625 385.035156 318.882812 375.882812 305.363281 361.226562 Z M 306.414062 394.097656 C 319.878906 408.097656 338.820312 416.789062 359.867188 416.789062 C 380.914062 416.789062 399.855469 408.097656 413.320312 394.097656 C 438.582031 403.59375 455.125 419.664062 455.125 437.957031 L 456.027344 437.957031 C 455.445312 439.613281 455.125 441.390625 455.125 443.25 L 455.125 464.417969 L 264.609375 464.417969 L 264.609375 443.25 C 264.609375 441.390625 264.289062 439.613281 263.707031 437.957031 L 264.609375 437.957031 C 264.609375 419.664062 281.152344 403.59375 306.414062 394.097656 Z M 306.414062 394.097656 "/>
<path style=" stroke:none;fill-rule:nonzero;fill:rgb(36.078432%,41.960785%,75.294119%);fill-opacity:1;" d="M 148.179688 25.167969 C 107.132812 25.167969 74.089844 58.214844 74.089844 99.257812 C 74.089844 140.304688 107.132812 173.351562 148.179688 173.351562 C 189.226562 173.351562 222.269531 140.304688 222.269531 99.257812 C 222.269531 58.214844 189.226562 25.167969 148.179688 25.167969 Z M 148.179688 56.921875 C 171.636719 56.921875 190.519531 75.804688 190.519531 99.257812 C 190.519531 122.714844 171.636719 141.597656 148.179688 141.597656 C 124.726562 141.597656 105.84375 122.714844 105.84375 99.257812 C 105.84375 75.804688 124.726562 56.921875 148.179688 56.921875 Z M 148.179688 56.921875 "/>
<path style=" stroke:none;fill-rule:nonzero;fill:rgb(47.058824%,56.470591%,61.176473%);fill-opacity:1;" d="M 93.679688 170.707031 C 50.734375 183.964844 21.167969 212.441406 21.167969 245.585938 L 21.167969 247.441406 L 22.070312 247.441406 C 21.488281 249.09375 21.167969 250.875 21.167969 252.734375 L 21.167969 284.484375 C 21.167969 284.972656 21.195312 285.453125 21.238281 285.929688 C 21.195312 286.324219 21.167969 286.726562 21.167969 287.132812 C 21.167969 294.460938 28.25 300.363281 37.046875 300.363281 L 259.316406 300.363281 C 268.113281 300.363281 275.191406 294.460938 275.191406 287.132812 C 275.191406 286.726562 275.167969 286.324219 275.125 285.929688 C 275.167969 285.453125 275.191406 284.972656 275.191406 284.484375 L 275.191406 252.734375 C 275.191406 250.875 274.875 249.09375 274.292969 247.441406 L 275.191406 247.441406 L 275.191406 245.585938 C 275.191406 212.441406 245.625 183.964844 202.683594 170.707031 C 189.164062 185.363281 169.78125 194.519531 148.179688 194.519531 C 126.578125 194.519531 107.195312 185.363281 93.679688 170.707031 Z M 94.726562 203.578125 C 108.191406 217.582031 127.132812 226.273438 148.179688 226.273438 C 169.230469 226.273438 188.171875 217.582031 201.632812 203.578125 C 226.894531 213.078125 243.441406 229.144531 243.441406 247.441406 L 244.339844 247.441406 C 243.757812 249.09375 243.441406 250.875 243.441406 252.734375 L 243.441406 273.902344 L 52.921875 273.902344 L 52.921875 252.734375 C 52.921875 250.875 52.601562 249.09375 52.019531 247.441406 L 52.921875 247.441406 C 52.921875 229.144531 69.464844 213.078125 94.726562 203.578125 Z M 94.726562 203.578125 "/>
</g>
</svg>

<svg xmlns="http://www.w3.org/2000/svg" width="512pt" height="512pt" viewBox="0 0 512 512"><path d="M359.867 215.688c-41.047 0-74.09 33.042-74.09 74.09 0 41.046 33.043 74.09 74.09 74.09 41.047 0 74.09-33.044 74.09-74.09 0-41.048-33.043-74.09-74.09-74.09zm0 31.753c23.457 0 42.336 18.883 42.336 42.336s-18.879 42.336-42.336 42.336c-23.453 0-42.336-18.883-42.336-42.336s18.883-42.336 42.336-42.336zm0 0" fill="#5c6bc0"/><path d="M305.363 361.227c-42.941 13.257-72.508 41.73-72.508 74.878v1.852h.903a15.92 15.92 0 0 0-.903 5.293v31.754c0 .488.024.969.067 1.441-.043.399-.067.797-.067 1.203 0 7.332 7.083 13.23 15.875 13.23h222.274c8.797 0 15.875-5.898 15.875-13.23 0-.406-.024-.804-.067-1.203.043-.472.067-.953.067-1.441V443.25c0-1.86-.32-3.637-.899-5.293h.899v-1.852c0-33.148-29.567-61.62-72.508-74.878-13.52 14.656-32.902 23.808-54.504 23.808-21.601 0-40.984-9.152-54.504-23.808zm1.051 32.87c13.465 14 32.406 22.692 53.453 22.692 21.047 0 39.988-8.691 53.453-22.691 25.262 9.496 41.805 25.566 41.805 43.859h.902a15.92 15.92 0 0 0-.902 5.293v21.168H264.609V443.25c0-1.86-.32-3.637-.902-5.293h.902c0-18.293 16.543-34.363 41.805-43.86zm0 0" fill="#424242"/><path d="M148.18 25.168c-41.047 0-74.09 33.047-74.09 74.09 0 41.047 33.043 74.094 74.09 74.094 41.047 0 74.09-33.047 74.09-74.094 0-41.043-33.043-74.09-74.09-74.09zm0 31.754c23.457 0 42.34 18.883 42.34 42.336 0 23.457-18.883 42.34-42.34 42.34-23.453 0-42.336-18.883-42.336-42.34 0-23.453 18.883-42.336 42.336-42.336zm0 0" fill="#5c6bc0"/><path d="M93.68 170.707c-42.946 13.258-72.512 41.734-72.512 74.879v1.855h.902a15.902 15.902 0 0 0-.902 5.293v31.75c0 .489.027.97.07 1.446-.043.394-.07.797-.07 1.203 0 7.328 7.082 13.23 15.879 13.23h222.27c8.796 0 15.874-5.902 15.874-13.23 0-.406-.023-.809-.066-1.203.043-.477.066-.957.066-1.446v-31.75a15.9 15.9 0 0 0-.898-5.293h.898v-1.855c0-33.145-29.566-61.621-72.507-74.879-13.52 14.656-32.903 23.813-54.504 23.813-21.602 0-40.985-9.157-54.5-23.813zm1.047 32.871c13.464 14.004 32.406 22.695 53.453 22.695 21.05 0 39.992-8.691 53.453-22.695 25.262 9.5 41.808 25.567 41.808 43.863h.899a15.9 15.9 0 0 0-.899 5.293v21.168H52.921v-21.168c0-1.859-.32-3.64-.901-5.293h.902c0-18.296 16.543-34.363 41.805-43.863zm0 0" fill="#78909c"/></svg>
